www/assets/icons/monitor_weight.svg

<svg xmlns="http://www.w3.org/2000/svg" width="24" height="24" viewBox="0 0 24 24" fill='currentColor'><path d="M19 3H5c-1.1 0-2 .9-2 2v14c0 1.1.9 2 2 2h14c1.1 0 2-.9 2-2V5c0-1.1-.9-2-2-2m-7 9c-1.66 0-3-1.34-3-3s1.34-3 3-3 3 1.34 3 3-1.34 3-3 3"/><path d="M11 8.5h-1v1h1zm1.5 0h-1v1h1zm1.5 0h-1v1h1z"/></svg>

<svg width="24" height="24" viewBox="0 0 24 24" xmlns="http://www.w3.org/2000/svg" fill='currentColor'><path d="M19 3H5C3.9 3 3 3.9 3 5V19C3 20.1 3.9 21 5 21H19C20.1 21 21 20.1 21 19V5C21 3.9 20.1 3 19 3ZM12 12C10.34 12 9 10.66 9 9C9 7.34 10.34 6 12 6C13.66 6 15 7.34 15 9C15 10.66 13.66 12 12 12Z"/><path d="M11 8.5H10V9.5H11V8.5Z"/><path d="M12.5 8.5H11.5V9.5H12.5V8.5Z"/><path d="M14 8.5H13V9.5H14V8.5Z"/></svg>
